bicons/22x22/categories/user-employee-zombie.svg

<?xml version="1.0" encoding="UTF-8" standalone="no"?>
<!-- Created with Inkscape (http://www.inkscape.org/) -->

<svg
   xmlns:dc="http://purl.org/dc/elements/1.1/"
   xmlns:cc="http://creativecommons.org/ns#"
   xmlns:rdf="http://www.w3.org/1999/02/22-rdf-syntax-ns#"
   xmlns:svg="http://www.w3.org/2000/svg"
   xmlns="http://www.w3.org/2000/svg"
   xmlns:xlink="http://www.w3.org/1999/xlink"
   xmlns:sodipodi="http://sodipodi.sourceforge.net/DTD/sodipodi-0.dtd"
   xmlns:inkscape="http://www.inkscape.org/namespaces/inkscape"
   width="210mm"
   height="297mm"
   viewBox="0 0 744.09448819 1052.3622047"
   id="svg2"
   version="1.1"
   inkscape:version="0.91 r13725"
   inkscape:export-xdpi="4.945313"
   inkscape:export-ydpi="4.945313"
   sodipodi:docname="user-employee-zombie.svg"
   inkscape:export-filename="C:\Users\johannes\Documents\Arbeit\RRZE\github3\bicons\22x22\categories\user-employee-zombie.png">
  <defs
     id="defs4">
    <linearGradient
       id="linearGradient2224">
      <stop
         id="stop2226"
         offset="0"
         style="stop-color:#7c7c7c;stop-opacity:1;" />
      <stop
         id="stop2228"
         offset="1"
         style="stop-color:#b8b8b8;stop-opacity:1;" />
    </linearGradient>
    <linearGradient
       id="linearGradient15218">
      <stop
         id="stop15220"
         offset="0"
         style="stop-color:#eeeeef;stop-opacity:1;" />
      <stop
         id="stop2736"
         offset="0.59928656"
         style="stop-color:#d3d7cf;stop-opacity:1;" />
      <stop
         id="stop2738"
         offset="0.82758623"
         style="stop-color:#ffffff;stop-opacity:1;" />
      <stop
         id="stop15222"
         offset="1"
         style="stop-color:#d3d7cf;stop-opacity:1;" />
    </linearGradient>
    <pattern
       y="0"
       x="0"
       height="6"
       width="6"
       patternUnits="userSpaceOnUse"
       id="EMFhbasepattern" />
    <pattern
       y="0"
       x="0"
       height="6"
       width="6"
       patternUnits="userSpaceOnUse"
       id="EMFhbasepattern-5" />
    <pattern
       y="0"
       x="0"
       height="6"
       width="6"
       patternUnits="userSpaceOnUse"
       id="EMFhbasepattern-7" />
    <linearGradient
       gradientTransform="matrix(1.139652,0,0,1.139652,-57.83514,-54.85886)"
       inkscape:collect="always"
       xlink:href="#linearGradient4254"
       id="linearGradient4268"
       x1="358.43118"
       y1="465.73074"
       x2="429.96555"
       y2="644.62878"
       gradientUnits="userSpaceOnUse" />
    <linearGradient
       inkscape:collect="always"
       id="linearGradient4254">
      <stop
         style="stop-color:#7a8597;stop-opacity:1"
         offset="0"
         id="stop4256" />
      <stop
         style="stop-color:#4e505d;stop-opacity:1"
         offset="1"
         id="stop4258" />
    </linearGradient>
    <linearGradient
       inkscape:collect="always"
       xlink:href="#linearGradient4321"
       id="linearGradient4263"
       x1="378.51413"
       y1="461.36569"
       x2="424.83945"
       y2="349.64282"
       gradientUnits="userSpaceOnUse"
       gradientTransform="matrix(1.4213542,0,0,1.3610373,-170.4264,-132.94449)" />
    <linearGradient
       id="linearGradient4321"
       inkscape:collect="always">
      <stop
         id="stop4323"
         offset="0"
         style="stop-color:#4e505d;stop-opacity:1;" />
      <stop
         id="stop4325"
         offset="1"
         style="stop-color:#7a8597;stop-opacity:1" />
    </linearGradient>
  </defs>
  <sodipodi:namedview
     id="base"
     pagecolor="#ffffff"
     bordercolor="#666666"
     borderopacity="1.0"
     inkscape:pageopacity="0.0"
     inkscape:pageshadow="2"
     inkscape:zoom="0.70710678"
     inkscape:cx="146.89789"
     inkscape:cy="582.61922"
     inkscape:document-units="px"
     inkscape:current-layer="layer1"
     showgrid="false"
     showguides="true"
     inkscape:guide-bbox="true"
     inkscape:window-width="1366"
     inkscape:window-height="721"
     inkscape:window-x="-4"
     inkscape:window-y="-4"
     inkscape:window-maximized="1"
     inkscape:snap-bbox="true"
     inkscape:bbox-paths="true"
     inkscape:bbox-nodes="true">
    <sodipodi:guide
       position="315.53572,730.17859"
       orientation="0,1"
       id="guide3338" />
    <sodipodi:guide
       position="351.25,330.17858"
       orientation="0,1"
       id="guide3340" />
    <sodipodi:guide
       position="189.10714,408.8393"
       orientation="1,0"
       id="guide3344" />
    <sodipodi:guide
       position="589.04521,468.07945"
       orientation="1,0"
       id="guide3346" />
    <inkscape:grid
       type="xygrid"
       id="grid3440" />
    <sodipodi:guide
       position="-223.44574,373.35239"
       orientation="1,0"
       id="guide3407" />
    <sodipodi:guide
       position="589.04521,378.30213"
       orientation="1,0"
       id="guide3411" />
  </sodipodi:namedview>
  <metadata
     id="metadata7">
    <rdf:RDF>
      <cc:Work
         rdf:about="">
        <dc:format>image/svg+xml</dc:format>
        <dc:type
           rdf:resource="http://purl.org/dc/dcmitype/StillImage" />
        <dc:title>user employee zombie</dc:title>
        <dc:date>June 2015</dc:date>
        <dc:creator>
          <cc:Agent>
            <dc:title>Johannes Hechler</dc:title>
          </cc:Agent>
        </dc:creator>
        <dc:rights>
          <cc:Agent>
            <dc:title>Johannes Hechler</dc:title>
          </cc:Agent>
        </dc:rights>
        <dc:publisher>
          <cc:Agent>
            <dc:title>RRZE</dc:title>
          </cc:Agent>
        </dc:publisher>
        <dc:contributor>
          <cc:Agent>
            <dc:title>Ute Weber, Hendrik Eggers</dc:title>
          </cc:Agent>
        </dc:contributor>
      </cc:Work>
    </rdf:RDF>
  </metadata>
  <g
     inkscape:label="Ebene 1"
     inkscape:groupmode="layer"
     id="layer1">
    <rect
       style="fill:none;fill-rule:evenodd;stroke:none;stroke-width:1px;stroke-linecap:butt;stroke-linejoin:miter;stroke-opacity:1"
       id="rect3336"
       width="400"
       height="400"
       x="189.10715"
       y="322.56262"
       inkscape:export-xdpi="4.9499998"
       inkscape:export-ydpi="4.9499998" />
    <path
       style="fill:url(#linearGradient4268);fill-opacity:1;stroke:none;stroke-width:41.15159225;stroke-linecap:round;stroke-linejoin:round;stroke-opacity:1"
       d="m 352.56417,473.12904 1.21875,13.24609 70.4336,-0.15234 0.93359,-12.40625 c -10.85246,4.92513 -22.89133,7.6875 -35.55859,7.6875 -13.24246,0 -25.79661,-3.02101 -37.02735,-8.375 z m -34.63476,16.47656 c -37.46331,34.26051 -62.36915,94.94769 -62.36915,164.10937 0,17.43092 1.59017,34.31912 4.55665,50.38672 4.40018,9.8436 15.45611,17.05966 28.70312,18.00196 l 0,0.10937 68.98633,0 c -3.06854,-5.29706 -4.8418,-11.40384 -4.8418,-17.86914 l 0,-109.12109 c 0,-19.732 16.44765,-36.17969 36.17969,-36.17969 l 18.35937,0 0,-0.17969 c 0,-19.732 16.4477,-36.17969 36.17969,-36.17969 l 42.84375,0 c -7.82351,-12.38405 -16.72943,-23.29625 -26.51758,-32.38086 l -0.2832,3.77735 c -0.60645,15.71472 -14.64938,28.09643 -29.50391,28.1289 l -81.08398,0.17579 c -6.32465,0.0138 -12.93274,-1.50909 -18.95117,-5.80079 -6.01797,-4.29136 -10.88954,-12.11978 -11.64453,-20.31836 l -0.61328,-6.66015 z m 116.66796,102.94922 a 18.0018,18.0018 0 0 1 -9.09375,2.48828 l -36.35937,0 c -0.4114,0 -0.17969,-0.23171 -0.17969,0.17969 l 0,109.12109 c 0,0.4114 -0.23171,0.17969 0.17969,0.17969 l 127.42969,0 c 0.26471,-0.56301 0.51235,-1.13277 0.73242,-1.71289 2.8154,-15.6807 4.32031,-32.13016 4.32031,-49.09571 0,-20.45708 -2.19568,-40.16229 -6.23437,-58.67187 l -71.70899,0 a 18.0018,18.0018 0 0 1 -9.08594,-2.48828 z"
       id="path2176"
       inkscape:connector-curvature="0" />
    <path
       style="fill:url(#linearGradient4263);fill-opacity:1;fill-rule:evenodd;stroke:none;stroke-width:1px;stroke-linecap:butt;stroke-linejoin:round;stroke-opacity:1"
       d="M 388.58203 322.18359 C 278.7766 322.30869 313.23437 447.55078 313.23438 447.55078 C 323.05865 459.72204 332.40094 466.00912 334.07031 468.58203 L 336.4668 494.61523 C 337.0614 501.07756 342.78597 504.39853 349.09961 504.38477 L 430.18359 504.20898 C 436.49726 504.19518 441.75586 499.51555 441.75586 493.02539 L 443.62109 468.23242 C 451.11114 463.06578 457.89808 456.72367 465.00977 448.61133 C 465.00977 448.61133 498.38745 322.05842 388.58203 322.18359 z M 352.72656 377.10352 C 362.79828 377.10352 370.90625 385.21148 370.90625 395.2832 L 370.90625 413.46289 C 370.90625 423.53461 362.79828 431.64258 352.72656 431.64258 C 342.65484 431.64258 334.54688 423.53461 334.54688 413.46289 L 334.54688 395.2832 C 334.54688 385.21148 342.65484 377.10352 352.72656 377.10352 z M 425.44727 377.10352 C 435.51899 377.10352 443.62695 385.21148 443.62695 395.2832 L 443.62695 413.46289 C 443.62695 423.53461 435.51899 431.64258 425.44727 431.64258 C 415.37555 431.64258 407.26758 423.53461 407.26758 413.46289 L 407.26758 395.2832 C 407.26758 385.21148 415.37555 377.10352 425.44727 377.10352 z "
       id="path4198" />
    <path
       inkscape:connector-curvature="0"
       style="color:#000000;clip-rule:nonzero;display:inline;overflow:visible;visibility:visible;opacity:1;isolation:auto;mix-blend-mode:normal;color-interpolation:sRGB;color-interpolation-filters:linearRGB;solid-color:#000000;solid-opacity:1;fill:#99b000;fill-opacity:1;fill-rule:nonzero;stroke:none;stroke-width:36;stroke-linecap:butt;stroke-linejoin:round;stroke-miterlimit:4;stroke-dasharray:none;stroke-dashoffset:0;stroke-opacity:1;color-rendering:auto;image-rendering:auto;shape-rendering:auto;text-rendering:auto;enable-background:accumulate"
       d="m 443.68331,540.68229 c -10.07172,0 -18.17969,8.10796 -18.17969,18.17968 l 0,18.1797 -36.35937,0 c -10.07172,0 -18.17969,8.108 -18.17969,18.1797 l 0,109.12112 c 0,10.0717 8.10797,18.1797 18.17969,18.1797 l 181.78125,0 c 10.07172,0 18.18164,-8.108 18.18164,-18.1797 l 0,-109.12112 c 0,-10.0717 -8.10992,-18.1797 -18.18164,-18.1797 l -36.3418,0 0,-18.1797 c 0,-10.07172 -8.10797,-18.17968 -18.17969,-18.17968 l -72.7207,0 z m 18.05469,18.17968 36.61133,0 c 10.00246,0 18.05468,8.0522 18.05468,18.0547 l 0,0.125 -72.7207,0 0,-0.125 c 0,-10.0025 8.05222,-18.0547 18.05469,-18.0547 z"
       id="rect4219" />
  </g>
</svg>

<?xml version="1.0" encoding="UTF-8" standalone="no"?>
<!-- Created with Inkscape (http://www.inkscape.org/) -->

<svg
   xmlns:dc="http://purl.org/dc/elements/1.1/"
   xmlns:cc="http://creativecommons.org/ns#"
   xmlns:rdf="http://www.w3.org/1999/02/22-rdf-syntax-ns#"
   xmlns:svg="http://www.w3.org/2000/svg"
   xmlns="http://www.w3.org/2000/svg"
   xmlns:xlink="http://www.w3.org/1999/xlink"
   xmlns:sodipodi="http://sodipodi.sourceforge.net/DTD/sodipodi-0.dtd"
   xmlns:inkscape="http://www.inkscape.org/namespaces/inkscape"
   width="210mm"
   height="297mm"
   viewBox="0 0 744.09448819 1052.3622047"
   id="svg2"
   version="1.1"
   inkscape:version="0.91 r13725"
   inkscape:export-xdpi="4.9499993"
   inkscape:export-ydpi="4.9499993"
   sodipodi:docname="user-employee-zombie.svg"
   inkscape:export-filename="C:\Users\johannes\Documents\Arbeit\RRZE\github3\bicons\22x22\categories\user-employee-zombie.png">
  <defs
     id="defs4">
    <linearGradient
       id="linearGradient2224">
      <stop
         id="stop2226"
         offset="0"
         style="stop-color:#7c7c7c;stop-opacity:1;" />
      <stop
         id="stop2228"
         offset="1"
         style="stop-color:#b8b8b8;stop-opacity:1;" />
    </linearGradient>
    <linearGradient
       id="linearGradient15218">
      <stop
         id="stop15220"
         offset="0"
         style="stop-color:#eeeeef;stop-opacity:1;" />
      <stop
         id="stop2736"
         offset="0.59928656"
         style="stop-color:#d3d7cf;stop-opacity:1;" />
      <stop
         id="stop2738"
         offset="0.82758623"
         style="stop-color:#ffffff;stop-opacity:1;" />
      <stop
         id="stop15222"
         offset="1"
         style="stop-color:#d3d7cf;stop-opacity:1;" />
    </linearGradient>
    <pattern
       y="0"
       x="0"
       height="6"
       width="6"
       patternUnits="userSpaceOnUse"
       id="EMFhbasepattern" />
    <pattern
       y="0"
       x="0"
       height="6"
       width="6"
       patternUnits="userSpaceOnUse"
       id="EMFhbasepattern-5" />
    <pattern
       y="0"
       x="0"
       height="6"
       width="6"
       patternUnits="userSpaceOnUse"
       id="EMFhbasepattern-7" />
    <linearGradient
       gradientTransform="matrix(1.139652,0,0,1.139652,-57.835159,-54.858724)"
       inkscape:collect="always"
       xlink:href="#linearGradient4254"
       id="linearGradient4268"
       x1="358.43118"
       y1="465.73074"
       x2="429.96555"
       y2="644.62878"
       gradientUnits="userSpaceOnUse" />
    <linearGradient
       inkscape:collect="always"
       id="linearGradient4254">
      <stop
         style="stop-color:#7a8597;stop-opacity:1"
         offset="0"
         id="stop4256" />
      <stop
         style="stop-color:#4e505d;stop-opacity:1"
         offset="1"
         id="stop4258" />
    </linearGradient>
    <linearGradient
       inkscape:collect="always"
       xlink:href="#linearGradient4321"
       id="linearGradient4263"
       x1="378.51413"
       y1="461.36569"
       x2="424.83945"
       y2="349.64282"
       gradientUnits="userSpaceOnUse"
       gradientTransform="matrix(1.4213542,0,0,1.3610373,-170.42641,-132.94436)" />
    <linearGradient
       id="linearGradient4321"
       inkscape:collect="always">
      <stop
         id="stop4323"
         offset="0"
         style="stop-color:#4e505d;stop-opacity:1;" />
      <stop
         id="stop4325"
         offset="1"
         style="stop-color:#7a8597;stop-opacity:1" />
    </linearGradient>
  </defs>
  <sodipodi:namedview
     id="base"
     pagecolor="#ffffff"
     bordercolor="#666666"
     borderopacity="1.0"
     inkscape:pageopacity="0.0"
     inkscape:pageshadow="2"
     inkscape:zoom="0.70710678"
     inkscape:cx="562.67668"
     inkscape:cy="565.64866"
     inkscape:document-units="px"
     inkscape:current-layer="layer1"
     showgrid="false"
     showguides="true"
     inkscape:guide-bbox="true"
     inkscape:window-width="1366"
     inkscape:window-height="721"
     inkscape:window-x="-4"
     inkscape:window-y="-4"
     inkscape:window-maximized="1"
     inkscape:snap-bbox="true"
     inkscape:bbox-paths="true"
     inkscape:bbox-nodes="true">
    <sodipodi:guide
       position="315.53572,730.17859"
       orientation="0,1"
       id="guide3338" />
    <sodipodi:guide
       position="351.25,330.17858"
       orientation="0,1"
       id="guide3340" />
    <sodipodi:guide
       position="189.10714,408.8393"
       orientation="1,0"
       id="guide3344" />
    <sodipodi:guide
       position="589.04521,468.07945"
       orientation="1,0"
       id="guide3346" />
    <inkscape:grid
       type="xygrid"
       id="grid3440" />
    <sodipodi:guide
       position="-223.44574,373.35239"
       orientation="1,0"
       id="guide3407" />
    <sodipodi:guide
       position="589.04521,378.30213"
       orientation="1,0"
       id="guide3411" />
  </sodipodi:namedview>
  <metadata
     id="metadata7">
    <rdf:RDF>
      <cc:Work
         rdf:about="">
        <dc:format>image/svg+xml</dc:format>
        <dc:type
           rdf:resource="http://purl.org/dc/dcmitype/StillImage" />
        <dc:title>user employee zombie</dc:title>
        <dc:date>June 2015</dc:date>
        <dc:creator>
          <cc:Agent>
            <dc:title>Johannes Hechler</dc:title>
          </cc:Agent>
        </dc:creator>
        <dc:rights>
          <cc:Agent>
            <dc:title>Johannes Hechler</dc:title>
          </cc:Agent>
        </dc:rights>
        <dc:publisher>
          <cc:Agent>
            <dc:title>RRZE</dc:title>
          </cc:Agent>
        </dc:publisher>
        <dc:contributor>
          <cc:Agent>
            <dc:title>Ute Weber, Hendrik Eggers</dc:title>
          </cc:Agent>
        </dc:contributor>
      </cc:Work>
    </rdf:RDF>
  </metadata>
  <g
     inkscape:label="Ebene 1"
     inkscape:groupmode="layer"
     id="layer1">
    <g
       id="g4202">
      <rect
         inkscape:export-ydpi="4.9499998"
         inkscape:export-xdpi="4.9499998"
         y="322.56271"
         x="189.10713"
         height="400"
         width="400"
         id="rect3336-1"
         style="fill:none;fill-rule:evenodd;stroke:none;stroke-width:1px;stroke-linecap:butt;stroke-linejoin:miter;stroke-opacity:1" />
      <path
         id="path2176"
         d="M 352.56445 473.12891 L 353.7832 486.375 L 424.2168 486.22266 L 425.15039 473.81641 C 414.29793 478.74154 402.25906 481.50391 389.5918 481.50391 C 376.34934 481.50391 363.79519 478.4829 352.56445 473.12891 z M 317.22461 490.27148 C 280.15723 524.64694 255.56055 584.9913 255.56055 653.71484 C 255.56055 671.14575 257.15071 688.03396 260.11719 704.10156 C 264.51737 713.94516 275.5733 721.16122 288.82031 722.10352 L 288.82031 722.21289 L 357.80859 722.21289 C 354.73948 716.91546 352.96484 710.80775 352.96484 704.3418 L 352.96484 595.2207 C 352.96484 575.4887 369.4125 559.04102 389.14453 559.04102 L 407.50391 559.04102 L 407.50391 558.86133 C 407.50391 552.09294 409.4401 545.71035 412.7793 540.24609 L 349.13867 540.38477 C 342.81402 540.39857 336.20593 538.87568 330.1875 534.58398 C 324.16907 530.29229 319.29738 522.46293 318.54297 514.26367 A 18.0018 18.0018 0 0 1 318.49414 513.59375 L 317.22461 490.27148 z M 460.64844 490.91602 L 460.00977 505.58203 C 460.03587 507.60418 459.99077 509.60075 459.75391 511.45898 L 459.73828 511.80859 L 459.74414 511.52344 C 459.74321 511.53044 459.74319 511.53772 459.74219 511.54492 C 459.6668 515.50842 458.73364 519.26796 457.14648 522.68164 L 486.51953 522.68164 C 478.86873 510.57441 470.18167 499.87662 460.64844 490.91602 z M 434.59766 592.55469 A 18.0018 18.0018 0 0 1 425.50391 595.04102 L 389.14453 595.04102 C 388.73313 595.04102 388.96484 594.8093 388.96484 595.2207 L 388.96484 704.3418 C 388.96484 704.7532 388.73313 704.52148 389.14453 704.52148 L 516.57422 704.52148 C 516.83864 703.959 517.08678 703.39011 517.30664 702.81055 C 520.12204 687.12985 521.62695 670.68038 521.62695 653.71484 C 521.62695 633.25629 519.43254 613.55031 515.39258 595.04102 L 443.68359 595.04102 A 18.0018 18.0018 0 0 1 434.59766 592.55469 z "
         style="fill:url(#linearGradient4268);fill-opacity:1;stroke:none;stroke-width:41.15159225;stroke-linecap:round;stroke-linejoin:round;stroke-opacity:1" />
      <path
         inkscape:connector-curvature="0"
         id="path4198"
         d="m 388.58202,322.18372 c -109.80542,0.1251 -75.34766,125.36719 -75.34765,125.36719 9.82427,12.17126 19.16656,18.45834 20.83593,21.03125 l 2.39649,44.0332 c 0.5946,6.46233 6.31917,9.7833 12.63281,9.76954 l 81.08398,-0.17579 c 6.31367,-0.0138 11.57227,-4.69343 11.57227,-11.18359 l 1.86523,-42.79297 c 7.49005,-5.16664 14.27699,-11.50875 21.38868,-19.62109 0,0 33.37768,-126.55291 -76.42774,-126.42774 z m -35.85547,54.91993 c 10.07172,0 18.17969,8.10796 18.17969,18.17968 l 0,18.17969 c 0,10.07172 -8.10797,18.17969 -18.17969,18.17969 -10.07172,0 -18.17968,-8.10797 -18.17968,-18.17969 l 0,-18.17969 c 0,-10.07172 8.10796,-18.17968 18.17968,-18.17968 z m 72.72071,0 c 10.07172,0 18.17968,8.10796 18.17968,18.17968 l 0,18.17969 c 0,10.07172 -8.10796,18.17969 -18.17968,18.17969 -10.07172,0 -18.17969,-8.10797 -18.17969,-18.17969 l 0,-18.17969 c 0,-10.07172 8.10797,-18.17968 18.17969,-18.17968 z"
         style="fill:url(#linearGradient4263);fill-opacity:1;fill-rule:evenodd;stroke:none;stroke-width:1px;stroke-linecap:butt;stroke-linejoin:round;stroke-opacity:1"
         sodipodi:nodetypes="sccccccccsssssssssssssss" />
      <rect
         inkscape:export-ydpi="4.9499998"
         inkscape:export-xdpi="4.9499998"
         y="322.56262"
         x="189.10715"
         height="400"
         width="400"
         id="rect3336"
         style="fill:none;fill-rule:evenodd;stroke:none;stroke-width:1px;stroke-linecap:butt;stroke-linejoin:miter;stroke-opacity:1" />
      <path
         id="rect4219"
         d="m 443.68331,540.68229 c -10.07172,0 -18.17969,8.10796 -18.17969,18.17968 l 0,18.1797 -36.35937,0 c -10.07172,0 -18.17969,8.108 -18.17969,18.1797 l 0,109.12112 c 0,10.0717 8.10797,18.1797 18.17969,18.1797 l 181.78125,0 c 10.07172,0 18.18164,-8.108 18.18164,-18.1797 l 0,-109.12112 c 0,-10.0717 -8.10992,-18.1797 -18.18164,-18.1797 l -36.3418,0 0,-18.1797 c 0,-10.07172 -8.10797,-18.17968 -18.17969,-18.17968 l -72.7207,0 z m 18.05469,18.17968 36.61133,0 c 10.00246,0 18.05468,8.0522 18.05468,18.0547 l 0,0.125 -72.7207,0 0,-0.125 c 0,-10.0025 8.05222,-18.0547 18.05469,-18.0547 z"
         style="color:#000000;clip-rule:nonzero;display:inline;overflow:visible;visibility:visible;opacity:1;isolation:auto;mix-blend-mode:normal;color-interpolation:sRGB;color-interpolation-filters:linearRGB;solid-color:#000000;solid-opacity:1;fill:#99b000;fill-opacity:1;fill-rule:nonzero;stroke:none;stroke-width:36;stroke-linecap:butt;stroke-linejoin:round;stroke-miterlimit:4;stroke-dasharray:none;stroke-dashoffset:0;stroke-opacity:1;color-rendering:auto;image-rendering:auto;shape-rendering:auto;text-rendering:auto;enable-background:accumulate"
         inkscape:connector-curvature="0" />
    </g>
  </g>
</svg>
